X:37
T:Stella's Trip to Kamloops
M:4/4
L:1/8
C:Patricia Chafe
O:Cape Breton
S:J.H. Collection
R:March
K:A
cd |\
"A"{cd}e3c A2 cd | "A"e<a A>a "D"{fg}f>e c<d |\
"A"e2 A2 c2 {cd}e2 | "D" d>c B<A "E"B2 cd |
y4 |\
"A"{cd}e3c A2 cd | "A"e<a A>a "D"f2 ed |\
"A"Tc>A c<e "D"d>c B<A | "E"E2 {FG}A2 "A"A2 :|
ga |\
"E"{ga}b3 g e2 g<b | "A"a>g a<f {f}e2 fg |\
"F#m"a4 f>e c<e | "Bm"d>c B<A "E"B2 cd |
y4 |\
"A"{cd}e3 c A2 cd | "A"e<a A>a "D"f2 ed |\
"A"Tc>A c<e "D"d>c B<A | "E"E2 {FG}A2 "A"A2 |]
ga |\
"E"{ga}b3 g e2 g<b | "A"a>g a<f {f}e2 fg |\
"F#m"a4 Tf>e c<e | "D"d>c B<A "E"B2 ce |
y4 |\
"D"d>e f<d "E"B2 c>d | "A"e<aA>a "D"f2 ed |\
"A"c>A c<e "D"d>c B<A | "E"E2 {FG}A2 "A"A2 |]
